svg/fluentui-system-icons/ic_fluent_pen_prohibited_24_regular.svg

<svg width="24" height="24" viewBox="0 0 24 24" fill="none" xmlns="http://www.w3.org/2000/svg">
<path d="M15.8911 3.04727C17.2885 1.64967 19.5543 1.6496 20.9519 3.04712C22.3493 4.44453 22.3493 6.71015 20.952 8.10763L17.9075 11.1525C17.4543 11.0524 16.9833 10.9997 16.5 10.9997C16.3021 10.9997 16.1063 11.0085 15.913 11.0258L19.8913 7.04704C20.7029 6.23534 20.7028 4.91942 19.8912 4.10778C19.0795 3.29607 17.7634 3.29611 16.9518 4.10787L5.00175 16.0593C4.79168 16.2694 4.64402 16.5337 4.57521 16.8227L3.76191 20.2385L7.17755 19.4253C7.46668 19.3564 7.73104 19.2087 7.94119 18.9985L10.0261 16.9134C10.0088 17.1065 10 17.3021 10 17.4997C10 17.9832 10.0528 18.4545 10.153 18.9079L9.00191 20.0591C8.59546 20.4656 8.08418 20.7514 7.52498 20.8845L2.92373 21.98C2.67037 22.0404 2.40385 21.9649 2.21968 21.7808C2.03552 21.5966 1.96009 21.3301 2.02041 21.0767L3.116 16.4753C3.2491 15.9162 3.5347 15.4051 3.94103 14.9987L15.8911 3.04727ZM22 17.4997C22 14.4621 19.5376 11.9997 16.5 11.9997C13.4624 11.9997 11 14.4621 11 17.4997C11 20.5372 13.4624 22.9997 16.5 22.9997C19.5376 22.9997 22 20.5372 22 17.4997ZM12.5 17.4997C12.5 15.2905 14.2909 13.4997 16.5 13.4997C17.3335 13.4997 18.1075 13.7546 18.7482 14.1908L13.1911 19.7479C12.755 19.1072 12.5 18.3332 12.5 17.4997ZM16.5 21.4997C15.6665 21.4997 14.8925 21.2447 14.2518 20.8085L19.8089 15.2514C20.245 15.8922 20.5 16.6661 20.5 17.4997C20.5 19.7088 18.7091 21.4997 16.5 21.4997Z" fill="#212121"/>
</svg>

<svg xmlns="http://www.w3.org/2000/svg" width="24" height="24"><path d="M15.891 3.047a3.578 3.578 0 1 1 5.061 5.06l-3.045 3.046a6.52 6.52 0 0 0-1.994-.127l3.978-3.979a2.078 2.078 0 0 0-2.94-2.94L5.002 16.06c-.21.21-.357.475-.426.764l-.813 3.415 3.416-.813c.289-.069.553-.216.763-.427l2.085-2.085a6.57 6.57 0 0 0 .127 1.995L9.003 20.06a3.106 3.106 0 0 1-1.477.825L2.924 21.98a.75.75 0 0 1-.904-.903l1.096-4.602c.133-.559.419-1.07.825-1.476l11.95-11.952ZM22 17.5a5.5 5.5 0 1 0-11 0 5.5 5.5 0 0 0 11 0Zm-9.5 0a4 4 0 0 1 6.248-3.31l-5.557 5.558A3.982 3.982 0 0 1 12.5 17.5Zm4 4a3.981 3.981 0 0 1-2.248-.692l5.557-5.557A4 4 0 0 1 16.5 21.5Z"/></svg>
